src/components/common/icons/garderobe.svg

<svg height="46" viewBox="0 0 60 46" width="60" xmlns="http://www.w3.org/2000/svg"><path d="m59.6708108 42.6333759c0-5.2834483-2.2135135-8.8181725-6.972973-11.1276552-4.2389189-2.0615173-15.9486486-6.9689655-18.381081-8.7744138 3.06-2.8588966 5.6643243-6.9138621 5.6643243-12.2799655 0-5.40500002-4.3832433-9.78734485-9.7897297-9.78734485-5.4064865 0-9.7897298 4.38234483-9.7897298 9.78734485 0 1.4343103.0421622 2.256.2886487 3.6044138h4.3118919c-.2027027-1.2771035-.2886487-2.0842069-.2886487-3.6044138 0-3.02582761 2.4518919-5.47468968 5.4778379-5.47468968 3.0275675 0 5.4778378 2.44886207 5.4778378 5.47468968 0 8.4292069-6.8967568 11.8277931-17.4227027 16.1906896-3.5254054 1.4586207-7.1691892 2.9707242-10.67513515 4.9155518-3.56432432 1.9821034-6.8627027 4.7972413-6.8627027 11.9444827v2.1555173h58.96540545zm-54.51567566-1.2868276c.43783783-3.1587242 1.95243243-4.5978966 4.51135135-6.0192414 3.29027031-1.8281379 17.64162161-7.6334483 20.51675671-9.9575172 2.8637838 2.3240689 17.1972973 8.0726551 20.6302703 10.011 2.7697297 1.5639655 4.1935135 3.1198275 4.4837838 5.9657586z" fill="#010202" fill-rule="evenodd"/></svg>

<?xml version="1.0" encoding="UTF-8"?>
<svg width="60px" height="46px" viewBox="0 0 60 46" version="1.1" xmlns="http://www.w3.org/2000/svg" xmlns:xlink="http://www.w3.org/1999/xlink">
    <!-- Generator: Sketch 52.5 (67469) - http://www.bohemiancoding.com/sketch -->
    <title>Icons/.garderobe</title>
    <desc>Created with Sketch.</desc>
    <g id="Vapaaehtoisalusta-Layouts" stroke="none" stroke-width="1" fill="none" fill-rule="evenodd">
        <g id="HKI-Ikonit" transform="translate(-545.000000, -244.000000)" fill="#010202">
            <g id="Icons/.garderobe" transform="translate(545.000000, 244.000000)">
                <path d="M59.6708108,42.6333759 C59.6708108,37.3499276 57.4572973,33.8152034 52.6978378,31.5057207 C48.4589189,29.4442034 36.7491892,24.5367552 34.3167568,22.7313069 C37.3767568,19.8724103 39.9810811,15.8174448 39.9810811,10.4513414 C39.9810811,5.04634138 35.5978378,0.663996552 30.1913514,0.663996552 C24.7848649,0.663996552 20.4016216,5.04634138 20.4016216,10.4513414 C20.4016216,11.8856517 20.4437838,12.7073414 20.6902703,14.0557552 L25.0021622,14.0557552 C24.7994595,12.7786517 24.7135135,11.9715483 24.7135135,10.4513414 C24.7135135,7.42551379 27.1654054,4.97665172 30.1913514,4.97665172 C33.2189189,4.97665172 35.6691892,7.42551379 35.6691892,10.4513414 C35.6691892,18.8805483 28.7724324,22.2791345 18.2464865,26.642031 C14.7210811,28.1006517 11.0772973,29.6127552 7.57135135,31.5575828 C4.00702703,33.5396862 0.708648649,36.3548241 0.708648649,43.5020655 L0.708648649,45.6575828 L59.6740541,45.6575828 L59.6708108,42.6333759 Z M5.15513514,41.3465483 C5.59297297,38.1878241 7.10756757,36.7486517 9.66648649,35.3273069 C12.9567568,33.499169 27.3081081,27.6938586 30.1832432,25.3697897 C33.047027,27.6938586 47.3805405,33.4424448 50.8135135,35.3807897 C53.5832432,36.9447552 55.007027,38.5006172 55.2972973,41.3465483 L5.15513514,41.3465483 Z" id="Fill-51"></path>
            </g>
        </g>
    </g>
</svg>
